img/iot/hive.svg

<svg xmlns="http://www.w3.org/2000/svg" width="40px" height="40px" viewBox="0 0 40 40"><g stroke="none" stroke-width="1" fill="none"><g transform="translate(0.000000, 15.947933)"><path d="M38.1506,3.72986667 C39.0246,3.59453333 39.3579333,3.55253333 39.8359333,3.38586667 C40.4392667,3.17853333 40.8659333,2.6892 40.8659333,2.0132 C40.8659333,1.36786667 40.4392667,0.816533333 39.8359333,0.639866667 C39.3579333,0.493866667 38.6606,0.608533333 38.1506,0.660533333 L22.4306,2.24253333 C21.1092667,2.3772 19.7359333,2.3772 18.4146,2.24253333 L2.71526667,0.660533333 C2.20593333,0.608533333 1.49793333,0.493866667 1.02993333,0.639866667 C0.4266,0.816533333 -6.66666667e-05,1.36786667 -6.66666667e-05,2.0132 C-6.66666667e-05,2.6892 0.4266,3.17853333 1.02993333,3.38586667 C1.49793333,3.54253333 1.84126667,3.59453333 2.71526667,3.72986667 L17.7386,6.1432 C19.5072667,6.42453333 21.3486,6.42453333 23.1172667,6.1432 L38.1506,3.72986667 Z" fill="#FF7A00"/></g><path d="M35.3938,12.4538667 C35.9038,12.4225333 36.6004667,12.3912 37.0791333,12.2558667 C37.6824667,12.0792 38.1091333,11.5272 38.1091333,10.8832 C38.1091333,10.2378667 37.6824667,9.68653333 37.0791333,9.5092 C36.6004667,9.36386667 35.9038,9.38453333 35.3938,9.38453333 L5.47246667,9.38453333 C4.96246667,9.38453333 4.2658,9.36386667 3.78713333,9.5092 C3.1838,9.68653333 2.75713333,10.2378667 2.75713333,10.8832 C2.75713333,11.5272 3.1838,12.0792 3.78713333,12.2558667 C4.2658,12.3912 4.96246667,12.4225333 5.47246667,12.4538667 L18.7684667,13.4005333 C19.8611333,13.4732 20.9944667,13.4732 22.0764667,13.4005333 L35.3938,12.4538667 Z" fill="#FF7A00"/><g transform="translate(8.000000, 0.614600)"><path d="M17.1148,0.317466667 C13.9834667,-0.0365333333 10.8621333,-0.0365333333 7.73013333,0.317466667 L3.05946667,0.848133333 C2.55946667,0.900133333 1.84213333,0.941466667 1.37413333,1.08746667 C0.895466667,1.24346667 0.344133333,1.6908 0.344133333,2.4608 C0.344133333,3.12613333 0.7808,3.6568 1.37413333,3.83346667 C1.85213333,3.96946667 2.55946667,3.9588 3.05946667,3.9588 L21.8068,3.9588 C22.3061333,3.9588 23.0134667,3.96946667 23.4921333,3.83346667 C24.0854667,3.6568 24.5221333,3.12613333 24.5221333,2.4608 C24.5221333,1.6908 23.9708,1.24346667 23.4921333,1.08746667 C23.0241333,0.941466667 22.3061333,0.900133333 21.8068,0.848133333 L17.1148,0.317466667 Z" fill="#FF7A00"/></g><path d="M17.3326,30.7474667 C19.3719333,31.2468 21.4732667,31.2468 23.5232667,30.7474667 L37.1626,27.3974667 C38.0259333,27.1894667 38.3692667,27.1168 38.8479333,26.9601333 C39.4512667,26.7621333 39.8779333,26.2528 39.8779333,25.5874667 C39.8779333,24.9421333 39.4512667,24.3801333 38.8479333,24.2034667 C38.3692667,24.0674667 37.6619333,24.2448 37.1626,24.3388 L22.4099333,26.9708 C21.1092667,27.1994667 19.7359333,27.1994667 18.4352667,26.9708 L3.70393333,24.3388 C3.2046,24.2448 2.49726667,24.0674667 2.0186,24.2034667 C1.41526667,24.3801333 0.9886,24.9421333 0.9886,25.5874667 C0.9886,26.2528 1.41526667,26.7621333 2.0186,26.9601333 C2.49726667,27.1168 2.8406,27.1894667 3.70393333,27.3974667 L17.3326,30.7474667 Z" fill="#FF7A00"/><path d="M33.1047333,36.2364 C34.0414,35.9144 34.3640667,35.7997333 34.7900667,35.6017333 C35.3727333,35.3417333 35.8200667,34.9357333 35.8200667,34.2077333 C35.8200667,33.5624 35.3940667,33.0004 34.7900667,32.8237333 C34.2494,32.6677333 33.5940667,32.8964 33.1047333,33.0317333 L23.8767333,35.5184 C21.6087333,36.1324 19.2260667,36.1217333 16.9687333,35.5184 L7.7614,33.0317333 C7.27206667,32.8964 6.61673333,32.6677333 6.07606667,32.8237333 C5.47273333,33.0004 5.04606667,33.5624 5.04606667,34.2077333 C5.04606667,34.9357333 5.4934,35.3417333 6.07606667,35.6017333 C6.50273333,35.7997333 6.82473333,35.9144 7.7614,36.2364 L16.5107333,39.2844 C19.0494,40.1690667 21.7960667,40.1690667 24.3447333,39.2844 L33.1047333,36.2364 Z" fill="#FF7A00"/></g></svg>

<svg xmlns="http://www.w3.org/2000/svg" viewBox="0 0 40 40"><path d="M38.15 19.678c.875-.136 1.208-.178 1.686-.344.603-.208 1.03-.697 1.03-1.373a1.43 1.43 0 0 0-1.03-1.373c-.478-.146-1.175-.032-1.685.02L22.43 18.19a20.011 20.011 0 0 1-4.016 0l-15.7-1.582c-.51-.052-1.217-.166-1.685-.02A1.43 1.43 0 0 0 0 17.96c0 .676.427 1.165 1.03 1.373.468.156.811.208 1.685.344L17.74 22.09c1.768.281 3.61.281 5.378 0l15.034-2.413zM35.394 12.454c.51-.031 1.206-.063 1.685-.198a1.43 1.43 0 0 0 0-2.747c-.479-.145-1.175-.124-1.685-.124H5.472c-.51 0-1.206-.021-1.685.124a1.43 1.43 0 0 0 0 2.747c.479.135 1.175.167 1.685.198l13.296.947c1.093.072 2.226.072 3.308 0l13.318-.947zM25.115.932a41.598 41.598 0 0 0-9.385 0l-4.67.53c-.5.053-1.218.094-1.686.24-.479.156-1.03.603-1.03 1.373 0 .666.437 1.196 1.03 1.373.478.136 1.185.125 1.685.125h18.748c.5 0 1.206.011 1.685-.125a1.422 1.422 0 0 0 1.03-1.373c0-.77-.551-1.217-1.03-1.373-.468-.146-1.186-.187-1.685-.24l-4.692-.53zM17.333 30.747c2.039.5 4.14.5 6.19 0l13.64-3.35c.863-.208 1.206-.28 1.685-.437.603-.198 1.03-.707 1.03-1.373 0-.645-.427-1.207-1.03-1.384-.479-.136-1.186.042-1.685.136L22.41 26.97a11.6 11.6 0 0 1-3.975 0L3.704 24.339c-.5-.094-1.207-.272-1.685-.136a1.442 1.442 0 0 0-1.03 1.384c0 .666.426 1.175 1.03 1.373.478.157.822.23 1.685.437l13.629 3.35zM33.105 36.236c.936-.322 1.26-.436 1.685-.634.583-.26 1.03-.666 1.03-1.394 0-.646-.426-1.208-1.03-1.384-.54-.156-1.196.072-1.685.208l-9.228 2.486c-2.268.614-4.65.604-6.908 0L7.76 33.032c-.489-.136-1.144-.364-1.685-.208a1.442 1.442 0 0 0-1.03 1.384c0 .728.447 1.134 1.03 1.394.427.198.749.312 1.685.634l8.75 3.048c2.538.885 5.285.885 7.834 0l8.76-3.048z" fill="#FF7A00"/></svg>
